X: 29589
T: Nóra Críona
R: jig
M: 6/8
K: Dmajor
.d2.d .d2.e|(f2d) (a2f)|.d2.d (d2f)|.e2.f {a}(g2e)|
.d2.d .d2.e|(f2d) (a2f)|(e2=c') c'2c'|.e2.f {a}(g2e)|
.a2.a (a2g)|(f2d) (a2f)|.a2.a (a2f)|(e2f) {a}(g2e)|
.d2.d .d2.e|(f2d) (a2f)|.d2.d {e}(dcd)|(e2f) {a}(g2e)|
.d2.d .d2.e|(f2d) (a2f)|(e2=c') .c'2.c'|(e2f) {a}(g2e)||

